X:564
T:Nun puedo coyer la flor (MQ 027)
R:Coral
C:Tradicional
S:Msica Tradicional Asturiana, (C) Tello & Tito. Asturies, 2001.
S:http://pagina.de/MusTradAst <telloytito@asturies.org>
N:Cancin que suelen cantar los coros.
N:No es tradicional de gaita pero si se toca bien queda muy bonita.
N:Para hacerla un poco variada se puede tocar una vez en Do y la siguiente modular a Fa.
A:Asturies
Z:Manolo Quirs 027
M:6/8
L:1/8
Q:1/4=96
K:C
C
|: CCD E2 F|D3-D2 D|DDE F2 G|E C2-C2 C|
CCD E2 F|D3-D2 D|DDE F2 G|E C2-C2 C|
FFG A2 B|GEF G2 A|FDE F2 G|(3A/B/A/ G2-G2 C|
FFG A2 B|GEF G2 A|FDE F2 G|E C2-C3-|
C2 C CCD|E2 F GEC|D2 B, B,B,C|DDE FDB,|
C2 C CCD|E2 F GEC|D2 B, B,B,C|DDE FE/D/C/B,/|[1 C5 C :|[2 C6|
